packages/vibrant-icons/assets/icons/VolumeMute/Regular.svg

<svg width="24" height="24" viewBox="0 0 24 24" fill="none" xmlns="http://www.w3.org/2000/svg">
<path fill-rule="evenodd" clip-rule="evenodd" d="M18.7214 1.28333C18.888 1.18335 19.1 1.30338 19.1 1.4977V17.5445L22.601 21.0455C22.6986 21.1431 22.6986 21.3014 22.601 21.3991L21.3989 22.6011C21.3013 22.6988 21.143 22.6988 21.0454 22.6011L1.39891 2.95469C1.30128 2.85706 1.30128 2.69877 1.39891 2.60114L2.60099 1.39906C2.69862 1.30143 2.85691 1.30143 2.95454 1.39906L7.20448 5.64899H11.4455L18.7214 1.28333ZM9.40448 7.84899L16.9 15.3445V4.94184L12.0549 7.84899H9.40448Z" fill="#0C0C0C"/>
<path d="M15.4529 20.0087C15.5789 20.1347 15.4896 20.3501 15.3114 20.3501H13.8282C13.7772 20.3501 13.7275 20.3345 13.6857 20.3055L11.3642 18.349H4.14999C4.01192 18.349 3.89999 18.2371 3.89999 18.099V8.45579L6.09999 10.6558V16.149H11.5932L15.4529 20.0087Z" fill="#0C0C0C"/>
</svg>

<svg xmlns="http://www.w3.org/2000/svg" width="24" height="24" fill="none"><path fill="#0C0C0C" fill-rule="evenodd" d="M18.721 1.283a.25.25 0 0 1 .379.215v16.046l3.501 3.502a.25.25 0 0 1 0 .353l-1.202 1.202a.25.25 0 0 1-.354 0L1.4 2.955a.25.25 0 0 1 0-.354L2.6 1.4a.25.25 0 0 1 .354 0l4.25 4.25h4.24zM9.404 7.85l7.496 7.496V4.942l-4.845 2.907z" clip-rule="evenodd"/><path fill="#0C0C0C" d="M15.453 20.009a.2.2 0 0 1-.142.341h-1.483a.25.25 0 0 1-.142-.045l-2.322-1.956H4.15a.25.25 0 0 1-.25-.25V8.456l2.2 2.2v5.493h5.493z"/></svg>
